X:17437
T:Through the Fields
M:C|
L:1/8
Q:160
C:Martin Dunlea
R:reel
D:Cormac Breatnach and Martin Dunlea: Music for Whistle and Guitar
Z:Devin McCabe
K:G
dDGd dDAd|cABc BGDG|DEGE DDGB|AGFG AD (3EGB|
!dDGd dDAd|cABc BGDG|E2GE DEGB|AG (3FGA G4|
!F~G3 AB (3cBA|BGGD ED (3DEG|Az A4 (3ABc|BAGB A2(3cBA|
!G2~G2 AB (3cBA|BGGD ED (3DEG|Az A4 (3ABc|BAGB A2(3cBA|
!G2BG FGAF|GF (3EFG FEDF|EFGE FGAc|B2G6|
!G2~G2 FGAF|GF (3EFG FEDF|EFGE FGAc|B2G6||
